src/images/svg/symbols/ava-usd.svg

<svg width="32" height="32" viewBox="0 0 32 32" fill="none" xmlns="http://www.w3.org/2000/svg">
<path d="M2 11C2 6.02944 6.02944 2 11 2C15.9706 2 20 6.02944 20 11C20 15.9706 15.9706 20 11 20C6.02944 20 2 15.9706 2 11Z" fill="#E84142"/>
<path d="M6.67175 15.0415H8.41608C8.82677 15.0415 9.03211 15.0415 9.21538 14.9908C9.41631 14.9311 9.59958 14.8252 9.75193 14.6794C9.94501 14.4954 10.0675 14.2388 10.1979 14.0104L12.4603 10.0112C12.6612 9.66016 12.7606 9.48351 12.8047 9.29804C12.8533 9.09711 12.8533 8.88514 12.8047 8.68421C12.7609 8.50014 12.6605 8.32476 12.4626 7.97892L11.5727 6.42542C11.3894 6.10305 11.2967 5.94186 11.1796 5.88225C11.0538 5.81822 10.9036 5.81822 10.7778 5.88225C10.6608 5.94186 10.568 6.10305 10.3848 6.42542L6.0778 14.017C5.89675 14.335 5.80621 14.494 5.81284 14.6242C5.82167 14.7656 5.89453 14.8936 6.01377 14.9709C6.12417 15.0415 6.30522 15.0415 6.67175 15.0415Z" fill="white"/>
<path d="M15.3205 15.0415H12.8211C12.4523 15.0415 12.2669 15.0415 12.1587 14.9709C12.0394 14.8936 11.9666 14.7634 11.9577 14.6221C11.9512 14.4928 12.0424 14.3353 12.225 14.0201L13.4769 11.8709C13.6601 11.5551 13.7528 11.3984 13.8677 11.3388C13.9935 11.2747 14.1415 11.2747 14.2673 11.3388C14.3813 11.3968 14.4701 11.5469 14.6458 11.8441L15.9304 14.0416C16.1039 14.341 16.1925 14.4939 16.1861 14.6199C16.1794 14.7611 16.1044 14.8915 15.9852 14.9688C15.8747 15.0415 15.6892 15.0415 15.3205 15.0415Z" fill="white"/>
<path d="M12 21C12 16.0294 16.0294 12 21 12C25.9706 12 30 16.0294 30 21C30 25.9706 25.9706 30 21 30C16.0294 30 12 25.9706 12 21Z" fill="white"/>
<path fill-rule="evenodd" clip-rule="evenodd" d="M20.6193 12C18.886 12.0999 17.2854 12.6903 15.9524 13.6331H26.3383C25.0052 12.6903 23.4046 12.0999 21.6712 12H21.3943H20.6193ZM14.1924 15.2657C13.7798 15.7672 13.4222 16.3149 13.125 16.8987L23.9472 16.8988H29.1657C28.8684 16.3151 28.5111 15.7673 28.0981 15.2658L24.1011 15.2657H14.1924ZM12.0371 20.1809C12.0862 19.6202 12.1875 19.0747 12.3353 18.5483H29.6523C29.8002 19.0746 29.9014 19.6202 29.9507 20.1809H12.0371ZM12.0405 21.8143C12.0926 22.3753 12.1976 22.9208 12.3484 23.4469H29.6394C29.7904 22.9208 29.8952 22.3752 29.9473 21.8143H12.0405ZM14.0792 26.7129C13.6614 26.212 13.2987 25.6642 12.9969 25.08H24.3481L28.9908 25.08C28.6891 25.6643 28.3264 26.212 27.9086 26.7129H23.53L14.0792 26.7129ZM20.6133 29.969L20.6406 29.97L20.6679 29.971C20.7761 29.9749 20.8846 29.9775 20.9938 29.9775C22.9005 29.9775 24.6673 29.3734 26.1223 28.3463L23.2321 28.3462H15.8655C17.223 29.3046 18.8524 29.8945 20.6133 29.969Z" fill="#F44336"/>
<path d="M20.8087 12.0046C16.1998 12.0984 12.4433 15.6569 12.0391 20.1834H20.8088V12.0046H20.8087Z" fill="#283991"/>
<path d="M13.7997 17.085L13.9367 17.506H14.3806L14.0215 17.7663L14.1586 18.1876L13.7997 17.9271L13.4408 18.1876L13.5777 17.7663L13.2187 17.506H13.6626L13.7997 17.085Z" fill="#EFEFEF"/>
<path d="M13.7997 18.5724L13.9367 18.9936H14.3806L14.0215 19.254L14.1586 19.6753L13.7997 19.4148L13.4408 19.6753L13.5777 19.254L13.2187 18.9936H13.6626L13.7997 18.5724Z" fill="#EFEFEF"/>
<path d="M15.2905 14.8533L15.4275 15.2745H15.8713L15.5123 15.535L15.6493 15.956L15.2905 15.6958L14.9314 15.956L15.0685 15.535L14.7093 15.2745H15.1532L15.2905 14.8533Z" fill="#EFEFEF"/>
<path d="M15.2905 16.341L15.4275 16.7621H15.8713L15.5123 17.0223L15.6493 17.4436L15.2905 17.1835L14.9314 17.4436L15.0685 17.0223L14.7093 16.7621H15.1532L15.2905 16.341Z" fill="#EFEFEF"/>
<path d="M15.2905 17.8287L15.4275 18.25H15.8713L15.5123 18.51L15.6493 18.9313L15.2905 18.6709L14.9314 18.9313L15.0685 18.51L14.7093 18.25H15.1532L15.2905 17.8287Z" fill="#EFEFEF"/>
<path d="M12.6678 18.9313L12.5307 18.51L12.8897 18.2498H12.446L12.4361 18.2191C12.3873 18.3694 12.3433 18.5216 12.3027 18.6755L12.309 18.6709L12.6678 18.9313Z" fill="#EFEFEF"/>
<path d="M13.4408 16.7L13.7996 16.4395L14.1587 16.7L14.0215 16.2786L14.3805 16.0182H13.9366L13.7995 15.5972L13.6625 16.0182H13.4989C13.4685 16.0641 13.4391 16.1103 13.4096 16.1569L13.5777 16.2786L13.4408 16.7Z" fill="#EFEFEF"/>
<path d="M15.2905 14.2081L15.6493 14.4683L15.5123 14.0473L15.8711 13.7868H15.6148C15.3971 13.9493 15.1871 14.1211 14.9853 14.3025L14.9311 14.4683L15.2905 14.2081Z" fill="#EFEFEF"/>
<path d="M16.4223 13.7246L16.7813 13.4642L17.1401 13.7246L17.0031 13.3033L17.3619 13.0431H16.9182L16.8996 12.9864C16.7492 13.0631 16.6004 13.1428 16.4549 13.2277L16.5592 13.3033L16.4223 13.7246Z" fill="#EFEFEF"/>
<path d="M16.7813 14.1096L16.9183 14.5305H17.3621L17.0031 14.791L17.1401 15.2123L16.7813 14.9518L16.4222 15.2123L16.5593 14.791L16.2002 14.5305H16.6441L16.7813 14.1096Z" fill="#EFEFEF"/>
<path d="M16.7813 15.5973L16.9183 16.0182H17.3621L17.0031 16.2786L17.1401 16.7L16.7813 16.4395L16.4222 16.7L16.5593 16.2786L16.2002 16.0182H16.6441L16.7813 15.5973Z" fill="#EFEFEF"/>
<path d="M16.7813 17.085L16.9183 17.506H17.3621L17.0031 17.7663L17.1401 18.1876L16.7813 17.9271L16.4222 18.1876L16.5593 17.7663L16.2002 17.506H16.6441L16.7813 17.085Z" fill="#EFEFEF"/>
<path d="M16.7813 18.5724L16.9183 18.9936H17.3621L17.0031 19.254L17.1401 19.6753L16.7813 19.4148L16.4222 19.6753L16.5593 19.254L16.2002 18.9936H16.6441L16.7813 18.5724Z" fill="#EFEFEF"/>
<path d="M18.2721 13.3656L18.4091 13.7868H18.8529L18.494 14.0473L18.6309 14.4683L18.2721 14.2081L17.9129 14.4683L18.0501 14.0473L17.691 13.7868H18.1349L18.2721 13.3656Z" fill="#EFEFEF"/>
<path d="M18.2721 14.8533L18.4091 15.2745H18.8529L18.494 15.535L18.6309 15.956L18.2721 15.6958L17.9129 15.956L18.0501 15.535L17.691 15.2745H18.1349L18.2721 14.8533Z" fill="#EFEFEF"/>
<path d="M18.2721 16.341L18.4091 16.7621H18.8529L18.494 17.0223L18.6309 17.4436L18.2721 17.1835L17.9129 17.4436L18.0501 17.0223L17.691 16.7621H18.1349L18.2721 16.341Z" fill="#EFEFEF"/>
<path d="M18.2721 17.8287L18.4091 18.25H18.8529L18.494 18.51L18.6309 18.9313L18.2721 18.6709L17.9129 18.9313L18.0501 18.51L17.691 18.25H18.1349L18.2721 17.8287Z" fill="#EFEFEF"/>
<path d="M19.7629 12.6219L19.8999 13.0431H20.3437L19.9847 13.3033L20.1217 13.7246L19.7629 13.4641L19.4038 13.7246L19.5409 13.3033L19.1818 13.0431H19.6256L19.7629 12.6219Z" fill="#EFEFEF"/>
<path d="M19.7629 14.1096L19.8999 14.5305H20.3437L19.9847 14.791L20.1217 15.2123L19.7629 14.9518L19.4038 15.2123L19.5409 14.791L19.1818 14.5305H19.6256L19.7629 14.1096Z" fill="#EFEFEF"/>
<path d="M19.7629 15.5973L19.8999 16.0182H20.3437L19.9847 16.2786L20.1217 16.7L19.7629 16.4395L19.4038 16.7L19.5409 16.2786L19.1818 16.0182H19.6256L19.7629 15.5973Z" fill="#EFEFEF"/>
<path d="M19.7629 17.085L19.8999 17.506H20.3437L19.9847 17.7663L20.1217 18.1876L19.7629 17.9271L19.4038 18.1876L19.5409 17.7663L19.1818 17.506H19.6256L19.7629 17.085Z" fill="#EFEFEF"/>
<path d="M19.7629 18.5724L19.8999 18.9936H20.3437L19.9847 19.254L20.1217 19.6753L19.7629 19.4148L19.4038 19.6753L19.5409 19.254L19.1818 18.9936H19.6256L19.7629 18.5724Z" fill="#EFEFEF"/>
</svg>

<svg width="32" height="32" fill="none" xmlns="http://www.w3.org/2000/svg"><path d="M2 11a9 9 0 1 1 18 0 9 9 0 0 1-18 0Z" fill="#E84142"/><path d="M6.672 15.041h1.744c.41 0 .616 0 .8-.05.2-.06.384-.166.536-.312.193-.184.316-.44.446-.669l2.262-3.999c.201-.35.3-.527.345-.713a1.31 1.31 0 0 0 0-.614c-.044-.184-.144-.36-.342-.705l-.89-1.554c-.184-.322-.276-.483-.393-.543a.444.444 0 0 0-.402 0c-.117.06-.21.221-.393.543l-4.307 7.592c-.181.318-.272.477-.265.607.009.142.082.27.2.347.111.07.292.07.659.07Zm8.648 0h-2.499c-.369 0-.554 0-.662-.07a.447.447 0 0 1-.201-.349c-.007-.13.084-.287.267-.602l1.252-2.15c.183-.315.276-.472.39-.531a.44.44 0 0 1 .4 0c.114.058.203.208.379.505l1.284 2.198c.174.299.262.452.256.578a.442.442 0 0 1-.2.349c-.111.072-.297.072-.666.072Z" fill="#fff"/><path d="M12 21a9 9 0 1 1 18 0 9 9 0 0 1-18 0Z" fill="#fff"/><path fill-rule="evenodd" clip-rule="evenodd" d="M20.62 12c-1.734.1-3.335.69-4.668 1.633h10.386A8.956 8.956 0 0 0 21.671 12H20.62Zm-6.428 3.266a8.985 8.985 0 0 0-1.067 1.633h16.041a8.973 8.973 0 0 0-1.068-1.633H14.192Zm-2.155 4.915c.05-.56.15-1.106.298-1.633h17.317c.148.527.25 1.072.299 1.633H12.037Zm.003 1.633a9.06 9.06 0 0 0 .308 1.633H29.64a8.897 8.897 0 0 0 .308-1.633H12.041Zm2.04 4.899a8.99 8.99 0 0 1-1.083-1.633H28.99a8.981 8.981 0 0 1-1.082 1.633H14.08Zm6.533 3.256.028.001.027.001a8.86 8.86 0 0 0 5.454-1.625H15.866a8.859 8.859 0 0 0 4.747 1.623Z" fill="#F44336"/><path d="M20.809 12.005a8.991 8.991 0 0 0-8.77 8.178h8.77v-8.178Z" fill="#283991"/><path d="m13.8 17.085.137.421h.444l-.36.26.138.422-.36-.26-.358.26.137-.422-.36-.26h.445l.137-.421Zm0 1.487.137.422h.444l-.36.26.138.421-.36-.26-.358.26.137-.421-.36-.26h.445l.137-.422Zm1.49-3.719.138.421h.443l-.359.261.137.421-.358-.26-.36.26.138-.421-.36-.26h.444l.137-.422Zm0 1.488.138.421h.443l-.359.26.137.422-.358-.26-.36.26.138-.422-.36-.26h.444l.137-.421Zm0 1.488.138.421h.443l-.359.26.137.421-.358-.26-.36.26.138-.421-.36-.26h.444l.137-.421Zm-2.622 1.102-.137-.421.359-.26h-.444l-.01-.03c-.049.15-.093.302-.133.456l.006-.005.359.26Zm.772-2.231.36-.26.359.26-.138-.421.36-.26h-.444l-.137-.422-.138.421H13.5l-.09.139.169.122-.137.421Zm1.85-2.492.36.26-.138-.42.36-.261h-.257a8.943 8.943 0 0 0-.63.515l-.054.166.36-.26Zm1.132-.483.36-.26.358.26-.137-.422.359-.26h-.444l-.018-.057c-.15.077-.3.157-.445.242l.104.075-.137.422Zm.359.385.137.42h.444l-.359.261.137.421-.359-.26-.359.26.137-.421-.359-.26h.444l.137-.421Zm0 1.487.137.421h.444l-.359.26.137.422-.359-.26-.359.26.137-.421-.359-.26h.444l.137-.422Zm0 1.488.137.421h.444l-.359.26.137.422-.359-.26-.359.26.137-.422-.359-.26h.444l.137-.421Zm0 1.487.137.422h.444l-.359.26.137.421-.359-.26-.359.26.137-.421-.359-.26h.444l.137-.422Zm1.491-5.206.137.42h.444l-.359.261.137.421-.359-.26-.36.26.138-.42-.359-.261h.444l.137-.421Zm0 1.487.137.421h.444l-.359.261.137.421-.359-.26-.36.26.138-.421-.359-.26h.444l.137-.422Zm0 1.488.137.421h.444l-.359.26.137.422-.359-.26-.36.26.138-.422-.359-.26h.444l.137-.421Zm0 1.488.137.421h.444l-.359.26.137.421-.359-.26-.36.26.138-.421-.359-.26h.444l.137-.421Zm1.491-5.207.137.421h.444l-.36.26.138.422-.36-.26-.358.26.137-.422-.36-.26h.445l.137-.421Zm0 1.488.137.42h.444l-.36.261.138.421-.36-.26-.358.26.137-.421-.36-.26h.445l.137-.421Zm0 1.487.137.421h.444l-.36.26.138.422-.36-.26-.358.26.137-.421-.36-.26h.445l.137-.422Zm0 1.488.137.421h.444l-.36.26.138.422-.36-.26-.358.26.137-.422-.36-.26h.445l.137-.421Zm0 1.487.137.422h.444l-.36.26.138.421-.36-.26-.358.26.137-.421-.36-.26h.445l.137-.422Z" fill="#EFEFEF"/></svg>
